.local/share/icons/Gruvbox-Plus-Dark/actions/16/path-mode-polyline.svg

<svg width="16" height="16" version="1.1" xmlns="http://www.w3.org/2000/svg">
  <defs>
    <style id="current-color-scheme" type="text/css">.ColorScheme-Text { color:#ebdbb2; } .ColorScheme-Highlight { color:#458588; }</style>
  </defs>
  <path class="ColorScheme-Text" d="m6.98 0c-0.2274 0.00458-0.4465 0.08656-0.6211 0.2324l-6 5c-0.5694 0.4745-0.443 1.392 0.2461 1.688l3.758 1.611-1.342 6.26c-0.2002 0.939 0.8768 1.554 1.592 0.998l5.928-4.611 4.064 1.742c1.24 0.533 1.985-1.327 0.79-1.84l-3.047-1.307 1.265-0.9843c1.133-0.8063-0.165-2.476-1.226-1.578l-2.139 1.664-3.584-1.537 1.314-6.129c0.1348-0.6305-0.3533-1.209-0.998-1.209zm-1.566 3.623-0.6231 2.912-1.896-0.8125zm0.8242 5.711 2.205 0.945-2.891 2.246z" fill="currentColor"/>
</svg>

<svg xmlns="http://www.w3.org/2000/svg" width="16" height="16" version="1.1">
 <defs>
  <style id="current-color-scheme" type="text/css">
   .ColorScheme-Text { color:#565656; } .ColorScheme-Highlight { color:#4285f4; }
  </style>
 </defs>
 <path style="fill:currentColor" class="ColorScheme-Text" d="M 6.9805,0 C 6.7531,0.00458 6.534,0.08656 6.3594,0.23242 L 0.35938,5.2324 C -0.21,5.7069 -0.08364,6.6244 0.60547,6.9199 L 4.3633,8.5312 3.0215,14.791 C 2.8213,15.73 3.8983,16.345 4.6133,15.789 L 10.541,11.178 14.605,12.92 C 15.845,13.453 16.59,11.593 15.395,11.08 L 12.348,9.7734 13.613,8.7891 C 14.746,7.9828 13.448,6.3126 12.387,7.2109 L 10.248,8.875 6.6641,7.3379 7.9785,1.209 C 8.1133,0.57852 7.6252,0 6.9805,0 Z M 5.4141,3.623 4.791,6.5352 2.8945,5.7227 Z M 6.2383,9.334 8.4434,10.279 5.5527,12.525 Z"/>
</svg>
